X:27
T:Hertig Carl
T:ur Sven Donats notbok (Ma5-27)
O:Småland
B:Sven Donats notbok
S:Sven Donat
N:Smus Ma5
N:Jag är lite osäker på läsningen av vissa noter.
Z:Till abc Jonas Brunskog
M:2/4
L:1/8
Q:1/4=160
K:Bb
f>b a>g|f>g f2|f>g f>e|d>e d2|c2 c2|c>d e>f|ge cA|B4:|
|:f2 F>G|F>G F>E|DF BD|c2 B2|f2 F>G|F>G F>E|De cA|B4:|
|:FA/c/ ec/A/|B2 f2|e2 c2|d2 B2|FA/c/ ec/A/|B2 d2|c2 A2|B4:|

